src/img/player-forwards.svg

<svg xmlns="http://www.w3.org/2000/svg" width="29" height="26" viewBox="0 0 29 26">
  <g fill="none" fill-rule="evenodd">
    <path fill="#FFFFFF" d="M27,9 L25.6052204,9 C25.4635898,8.83389037 25.3151848,8.67324591 25.1600053,8.51806641 C24.4116292,7.76969027 23.5361496,7.18066621 22.5335405,6.75097656 C21.5309313,6.32128691 20.4638847,6.10644531 19.3323686,6.10644531 C18.193691,6.10644531 17.1230637,6.32128691 16.1204545,6.75097656 C15.1178453,7.18066621 14.2423658,7.76969027 13.4939897,8.51806641 C12.7456135,9.26644254 12.1565895,10.1419221 11.7268998,11.1445312 C11.2972102,12.1471404 11.0823686,13.2177677 11.0823686,14.3564453 L11.0823686,15.7744141 L13.4349076,13.4111328 C13.5423301,13.3037104 13.6730254,13.25 13.8269975,13.25 C13.9809696,13.25 14.1116649,13.3037104 14.2190873,13.4111328 C14.3265097,13.5185552 14.3802201,13.6492505 14.3802201,13.8032227 C14.3802201,13.9571948 14.3265097,14.0878901 14.2190873,14.1953125 L10.9212358,17.4931641 C10.8639438,17.5432945 10.8012817,17.5826821 10.7332475,17.6113281 C10.6652133,17.6399741 10.5953898,17.6542969 10.5237748,17.6542969 C10.4593214,17.6542969 10.3930786,17.6399741 10.3250444,17.6113281 C10.2570102,17.5826821 10.194348,17.5432945 10.1370561,17.4931641 L6.83920451,14.1953125 C6.7317821,14.0878901 6.6780717,13.9571948 6.6780717,13.8032227 C6.6780717,13.6492505 6.7317821,13.5185552 6.83920451,13.4111328 C6.94662693,13.3037104 7.07553189,13.25 7.22592326,13.25 C7.37631464,13.25 7.5052196,13.3037104 7.61264201,13.4111328 L9.97592326,15.7744141 L9.97592326,14.3564453 C9.97592326,13.7262338 10.0367951,13.1121449 10.1585405,12.5141602 C10.2802859,11.9161754 10.4557398,11.3361031 10.6849076,10.7739258 C10.9140755,10.2117485 11.1987406,9.67643483 11.5389115,9.16796875 C11.8790825,8.65950267 12.2711684,8.18327045 12.7151811,7.73925781 C13.1591937,7.29524518 13.6354259,6.90315925 14.143892,6.56298828 C14.6523581,6.22281731 15.1876718,5.93815219 15.749849,5.70898438 C16.3120263,5.47981656 16.8920987,5.30436259 17.4900834,5.18261719 C18.0880682,5.06087179 18.7021571,5 19.3323686,5 C19.9554186,5 20.5677171,5.06087179 21.1692826,5.18261719 C21.7708481,5.30436259 22.3509205,5.47981656 22.909517,5.70898438 C23.4681136,5.93815219 24.0016369,6.22281731 24.510103,6.56298828 C25.018569,6.90315925 25.4948013,7.29524518 25.9388139,7.73925781 C26.333588,8.13403193 26.6873136,8.5542759 26.9999989,8.99999978 L27,9 Z" transform="matrix(-1 0 0 1 33.678 0)"/>
    <path fill="#FFFFFF" d="M5.26,19.3943662 C5.193333,19.3943662 5.1400002,19.3714791 5.1,19.3257042 C5.0599998,19.2799293 5.04,19.2218313 5.04,19.1514085 L5.04,13.193662 L3.36,14.556338 C3.3133331,14.5985918 3.2633336,14.6197183 3.21,14.6197183 C3.1499997,14.6197183 3.0933336,14.5845074 3.04,14.5140845 L2.8,14.1866197 C2.7666665,14.1373237 2.75,14.0880284 2.75,14.0387324 C2.75,13.9612672 2.783333,13.8978876 2.85,13.8485915 L5.02,12.0739437 C5.0933337,12.0246476 5.1799995,12 5.28,12 L5.75,12 C5.816667,12 5.87166645,12.0228871 5.915,12.068662 C5.95833355,12.1144368 5.98,12.1725349 5.98,12.2429577 L5.98,19.1514085 C5.98,19.2218313 5.95833355,19.2799293 5.915,19.3257042 C5.87166645,19.3714791 5.816667,19.3943662 5.75,19.3943662 L5.26,19.3943662 Z M9.66,19.5 C9.1599975,19.5 8.7266685,19.4049305 8.36,19.2147887 C7.9933315,19.0246469 7.7133343,18.77641 7.52,18.4700704 C7.3266657,18.1637309 7.2233334,17.8345088 7.21,17.4823944 L7.21,17.4612676 C7.21,17.4049293 7.2299998,17.3591551 7.27,17.3239437 C7.3100002,17.2887322 7.3566664,17.2711268 7.41,17.2711268 L7.9,17.2711268 C8.0400007,17.2711268 8.1299998,17.3485908 8.17,17.5035211 C8.2700005,17.8838047 8.45499865,18.1672526 8.725,18.3538732 C8.99500135,18.5404939 9.3066649,18.6338028 9.66,18.6338028 C10.1133356,18.6338028 10.4899985,18.4876775 10.79,18.1954225 C11.0900015,17.9031676 11.24,17.5000026 11.24,16.9859155 C11.24,16.5140821 11.0900015,16.1390859 10.79,15.8609155 C10.4899985,15.5827451 10.1133356,15.443662 9.66,15.443662 C9.4199988,15.443662 9.2266674,15.4753518 9.08,15.5387324 C8.9333326,15.602113 8.7833341,15.6936614 8.63,15.8133803 C8.5433329,15.8838032 8.47166695,15.934859 8.415,15.9665493 C8.35833305,15.9982396 8.296667,16.0140845 8.23,16.0140845 L7.75,16.0140845 C7.6899997,16.0140845 7.6366669,15.9911974 7.59,15.9454225 C7.5433331,15.8996477 7.5233333,15.8450707 7.53,15.7816901 L7.84,12.2640845 C7.8600001,12.0880273 7.9433326,12 8.09,12 L11.55,12 C11.6233337,12 11.6799998,12.0211265 11.72,12.0633803 C11.7600002,12.105634 11.78,12.1654926 11.78,12.2429577 L11.78,12.6338028 C11.78,12.7042257 11.7583335,12.7605632 11.715,12.8028169 C11.6716665,12.8450706 11.616667,12.8661972 11.55,12.8661972 L8.67,12.8661972 L8.49,14.9894366 C8.8100016,14.7499988 9.2399973,14.6302817 9.78,14.6302817 C10.2266689,14.6302817 10.6333315,14.7235906 11,14.9102113 C11.3666685,15.0968319 11.6583323,15.3697165 11.875,15.7288732 C12.0916677,16.08803 12.2,16.514082 12.2,17.0070423 C12.2,17.5281716 12.0916677,17.9771108 11.875,18.3538732 C11.6583323,18.7306357 11.3583352,19.0158441 10.975,19.209507 C10.5916647,19.40317 10.1533358,19.5 9.66,19.5 Z"/>
  </g>
</svg>

<svg xmlns="http://www.w3.org/2000/svg" width="29" height="26"><path d="M6.678 9h1.395a8.265 8.265 0 0 1 3.071-2.249 8.04 8.04 0 0 1 3.202-.645c1.138 0 2.209.215 3.212.645a8.296 8.296 0 0 1 2.626 1.767 8.296 8.296 0 0 1 1.767 2.627 8.067 8.067 0 0 1 .645 3.211v1.418l-2.353-2.363a.534.534 0 0 0-.392-.161.534.534 0 0 0-.392.161.534.534 0 0 0-.161.392c0 .154.053.285.16.392l3.299 3.298c.057.05.12.09.188.118a.51.51 0 0 0 .408 0 .692.692 0 0 0 .188-.118l3.298-3.298a.534.534 0 0 0 .16-.392.534.534 0 0 0-.16-.392.527.527 0 0 0-.387-.161.53.53 0 0 0-.387.161l-2.363 2.363v-1.418c0-.63-.06-1.244-.183-1.842a9.756 9.756 0 0 0-.526-1.74 8.973 8.973 0 0 0-.854-1.606 9.447 9.447 0 0 0-1.176-1.429 9.447 9.447 0 0 0-1.429-1.176 8.973 8.973 0 0 0-1.606-.854 9.756 9.756 0 0 0-1.74-.526A9.212 9.212 0 0 0 14.346 5c-.623 0-1.236.06-1.837.183a9.58 9.58 0 0 0-1.74.526 9.05 9.05 0 0 0-1.601.854 9.41 9.41 0 0 0-1.429 1.176A9.485 9.485 0 0 0 6.678 9zM5.26 19.394a.202.202 0 0 1-.16-.068.255.255 0 0 1-.06-.175v-5.957l-1.68 1.362a.22.22 0 0 1-.15.064c-.06 0-.117-.035-.17-.106l-.24-.327a.263.263 0 0 1-.05-.148c0-.078.033-.141.1-.19l2.17-1.775A.455.455 0 0 1 5.28 12h.47c.067 0 .122.023.165.069a.243.243 0 0 1 .065.174v6.908c0 .07-.022.129-.065.175a.217.217 0 0 1-.165.068h-.49zm4.4.106c-.5 0-.933-.095-1.3-.285a2.116 2.116 0 0 1-.84-.745 1.96 1.96 0 0 1-.31-.988v-.02c0-.057.02-.103.06-.138a.205.205 0 0 1 .14-.053h.49c.14 0 .23.078.27.233.1.38.285.663.555.85.27.186.582.28.935.28.453 0 .83-.146 1.13-.439.3-.292.45-.695.45-1.21 0-.47-.15-.846-.45-1.124-.3-.278-.677-.417-1.13-.417-.24 0-.433.031-.58.095a2.08 2.08 0 0 0-.45.274 1.71 1.71 0 0 1-.215.154.373.373 0 0 1-.185.047h-.48a.222.222 0 0 1-.16-.069.191.191 0 0 1-.06-.163l.31-3.518c.02-.176.103-.264.25-.264h3.46c.073 0 .13.021.17.063.04.043.06.102.06.18v.39a.228.228 0 0 1-.065.17.227.227 0 0 1-.165.063H8.67l-.18 2.123c.32-.239.75-.359 1.29-.359.447 0 .853.094 1.22.28.367.187.658.46.875.819.217.359.325.785.325 1.278 0 .521-.108.97-.325 1.347a2.123 2.123 0 0 1-.9.856c-.383.193-.822.29-1.315.29z" fill="#FFF" fill-rule="evenodd"/></svg>
